src/static/logos/maxcdn.svg

<svg width="512" height="117" xmlns="http://www.w3.org/2000/svg" preserveAspectRatio="xMidYMid"><path d="M491.117 105.048c-1.38 6.206-7.816 11.263-14.022 11.263H10.241c-6.436 0-10.344-5.057-8.965-11.263l21.608-93.785C24.493 5.057 30.699 0 37.135 0h466.624c6.436 0 10.344 5.057 8.965 11.263l-21.607 93.785" fill="#F60"/><path d="M210.912 43.444l-10.344 48.961h-48.041c-5.287 0-9.425-2.068-12.413-6.436-2.988-4.367-3.678-9.424-2.528-14.941 1.149-5.747 4.137-10.574 8.734-14.941 4.828-4.368 9.885-6.436 15.172-6.436h31.261l1.149-5.287c.23-1.379 0-2.759-.689-3.678-.69-1.149-1.839-1.609-3.218-1.609h-41.376l3.678-17.7h42.295c5.747 0 10.344 2.069 13.562 6.666 2.988 4.138 4.138 9.425 2.758 15.401zm-49.88 20.458c-1.379 0-2.759.46-3.908 1.609-1.149 1.15-2.069 2.299-2.298 3.678-.23.69-.23 1.379 0 2.069.229.689.459 1.149.689 1.609.46.46.92.919 1.379 1.149.46.23 1.15.46 1.839.46h28.733l2.299-10.574h-28.733zm91.716-7.126l15.4 35.629h-21.607l-7.815-20.687-16.55 20.687h-21.378l30.572-35.629-15.631-35.399h21.608l7.815 20.688 16.55-20.688h21.607l-30.571 35.399z" fill="#FFF"/><path d="M330.442 39.077h-31.951c-1.61 0-3.219.69-4.598 1.839s-2.298 2.758-2.758 4.367l-5.057 22.987c-.46 1.839-.23 3.218.689 4.367.92 1.149 2.299 1.839 3.908 1.839h36.319l-3.908 17.7h-37.928c-5.746 0-10.343-2.069-13.562-6.437-3.218-4.367-4.137-9.654-2.988-15.63l5.747-26.665c1.379-5.976 4.367-11.263 9.424-15.631 5.057-4.367 10.574-6.665 16.321-6.665h33.79l-3.448 17.929zm74.476 17.47c1.838-8.965 0-17.93-5.517-24.596-5.287-6.666-13.792-10.574-22.987-10.574h-32.41l-15.172 71.028h38.618c17.01-1.149 32.64-14.481 36.318-31.261l1.15-4.597zm-17.7-3.908l-.92 4.597c-1.838 8.965-11.723 17.01-21.147 17.01h-13.792l7.356-34.939h17.699c3.678 0 6.896 1.379 8.965 3.678 2.069 2.528 2.529 5.976 1.839 9.654zm91.026-9.195L467.9 92.405h-16.78l10.114-47.122c.23-.919.23-1.609 0-2.298-.23-.69-.459-1.38-.919-2.069-.46-.46-.92-.92-1.609-1.379-.69-.23-1.379-.46-2.069-.46h-28.043L417.1 92.405h-16.78l15.171-71.028h46.433c5.746 0 10.344 2.069 13.562 6.666 2.988 4.138 3.907 9.425 2.758 15.401zM132.988 29.882c-4.367-5.516-11.263-8.505-18.619-8.505H43.341l8.505 18.16-11.263 52.868h18.619l11.263-52.868h15.861L75.063 92.405h18.619l11.263-52.868h9.424c2.069 0 3.678.689 4.598 1.839.919 1.149 1.379 2.988.919 4.827l-9.884 46.202h18.619l8.965-42.295c1.379-7.355-.23-14.711-4.598-20.228z" fill="#FFF"/></svg>

<?xml version="1.0" encoding="UTF-8" standalone="no"?>
<svg width="512px" height="117px" viewBox="0 0 512 117" version="1.1" xmlns="http://www.w3.org/2000/svg" xmlns:xlink="http://www.w3.org/1999/xlink" preserveAspectRatio="xMidYMid">
	<g>
		<path d="M491.117,105.048 C489.737,111.254 483.301,116.311 477.095,116.311 L10.241,116.311 C3.805,116.311 -0.103,111.254 1.276,105.048 L22.884,11.263 C24.493,5.057 30.699,0 37.135,0 L503.759,0 C510.195,0 514.103,5.057 512.724,11.263 L491.117,105.048" fill="#FF6600"></path>
		<path d="M210.912,43.444 L200.568,92.405 L152.527,92.405 C147.24,92.405 143.102,90.337 140.114,85.969 C137.126,81.602 136.436,76.545 137.586,71.028 C138.735,65.281 141.723,60.454 146.32,56.087 C151.148,51.719 156.205,49.651 161.492,49.651 L192.753,49.651 L193.902,44.364 C194.132,42.985 193.902,41.605 193.213,40.686 C192.523,39.537 191.374,39.077 189.995,39.077 L148.619,39.077 L152.297,21.377 L194.592,21.377 C200.339,21.377 204.936,23.446 208.154,28.043 C211.142,32.181 212.292,37.468 210.912,43.444 L210.912,43.444 Z M161.032,63.902 C159.653,63.902 158.273,64.362 157.124,65.511 C155.975,66.661 155.055,67.81 154.826,69.189 C154.596,69.879 154.596,70.568 154.826,71.258 C155.055,71.947 155.285,72.407 155.515,72.867 C155.975,73.327 156.435,73.786 156.894,74.016 C157.354,74.246 158.044,74.476 158.733,74.476 L187.466,74.476 L189.765,63.902 L161.032,63.902 L161.032,63.902 Z M252.748,56.776 L268.148,92.405 L246.541,92.405 L238.726,71.718 L222.176,92.405 L200.798,92.405 L231.37,56.776 L215.739,21.377 L237.347,21.377 L245.162,42.065 L261.712,21.377 L283.319,21.377 L252.748,56.776 L252.748,56.776 Z" fill="#FFFFFF"></path>
		<path d="M330.442,39.077 L298.491,39.077 C296.881,39.077 295.272,39.767 293.893,40.916 C292.514,42.065 291.595,43.674 291.135,45.283 L286.078,68.27 C285.618,70.109 285.848,71.488 286.767,72.637 C287.687,73.786 289.066,74.476 290.675,74.476 L326.994,74.476 L323.086,92.176 L285.158,92.176 C279.412,92.176 274.815,90.107 271.596,85.739 C268.378,81.372 267.459,76.085 268.608,70.109 L274.355,43.444 C275.734,37.468 278.722,32.181 283.779,27.813 C288.836,23.446 294.353,21.148 300.1,21.148 L333.89,21.148 L330.442,39.077 L330.442,39.077 Z M404.918,56.547 C406.756,47.582 404.918,38.617 399.401,31.951 C394.114,25.285 385.609,21.377 376.414,21.377 L344.004,21.377 L328.832,92.405 L367.45,92.405 C384.46,91.256 400.09,77.924 403.768,61.144 L404.918,56.547 L404.918,56.547 Z M387.218,52.639 L386.298,57.236 C384.46,66.201 374.575,74.246 365.151,74.246 L351.359,74.246 L358.715,39.307 L376.414,39.307 C380.092,39.307 383.31,40.686 385.379,42.985 C387.448,45.513 387.908,48.961 387.218,52.639 L387.218,52.639 Z M478.244,43.444 L467.9,92.405 L451.12,92.405 L461.234,45.283 C461.464,44.364 461.464,43.674 461.234,42.985 C461.004,42.295 460.775,41.605 460.315,40.916 C459.855,40.456 459.395,39.996 458.706,39.537 C458.016,39.307 457.327,39.077 456.637,39.077 L428.594,39.077 L417.1,92.405 L400.32,92.405 L415.491,21.377 L461.924,21.377 C467.67,21.377 472.268,23.446 475.486,28.043 C478.474,32.181 479.393,37.468 478.244,43.444 L478.244,43.444 Z M132.988,29.882 C128.621,24.366 121.725,21.377 114.369,21.377 L43.341,21.377 L51.846,39.537 L40.583,92.405 L59.202,92.405 L70.465,39.537 L86.326,39.537 L75.063,92.405 L93.682,92.405 L104.945,39.537 L114.369,39.537 C116.438,39.537 118.047,40.226 118.967,41.376 C119.886,42.525 120.346,44.364 119.886,46.203 L110.002,92.405 L128.621,92.405 L137.586,50.11 C138.965,42.755 137.356,35.399 132.988,29.882 L132.988,29.882 Z" fill="#FFFFFF"></path>
	</g>
</svg>
